!!!ONB: MCCC : IJH0420_03 : Extracted Monophonic Melody
!!!COM: Haydn, Joseph
!!!OPR: String Quartet in C major
!!!OMV: 3
!!!SCT: Hob.III:57 ; Op.54 No.2
!!!ODT: 1788///
**kern
*thru
*>A
*clefG2
*k[]
*C:
*M3/4
4e
2r
=1
4e
8c
8r
4g
=2
4g
8e
8r
4cc
=3
2cc
4b
=4
4a
4g
4b-
=5
2b-
4a
=6
4g
4f
4a
=7
2c
8d
8B
=8
4c
4r
=9
*>A
4e
2r
=10
4e
8c
8r
4g
=11
4g
8e
8r
4cc
=12
2cc
4b
=13
4a
4g
4b-
=14
2b-
4a
=15
4g
4f
4a
=16
2c
8d
8B
=17
4c
4r
=18
*>B
4d
2r
=19
4d
8g
8r
4f#
=20
4f#
8cc
8r
4b
=21
4b
4ee
4ee
=22
2dd
4cc
=23
2cc
4b
=24
4a
4g
4gg
=25
2gg
4ff#
=26
4ee
4dd
4cc#
=27
2cc#
4dd
=28
4cc
4b
4a
=29
2g
8a
8f#
=30
4g
4r
4b
=31
4b
8g
8r
4dd
=32
4dd
8b
8r
4ff
=33
4ff[
8.ff]
16gg
8.aa
16gg
=34
4ff
4r
4e
=35
4e
8c
8r
4g
=36
4g
8e
8r
4cc
=37
2cc
4b
=38
4a
4g
4b-
=39
2b-
4a
=40
4g
4f
4a
=41
2c
8d
8B
=42
4c
4r
4ccc
=43
2ccc
4bb
=44
4aa
4gg
4bb-
=45
2bb-
4aa
=46
4gg
4ff
4aa
=47
2cc
8dd
8b
=48
8cc
8dd
8ee-
8ee
8ff
8ff#
=49
4gg
4r
4b
=50
8cc
8ee
8ff
8ff#
8gg
8gg#
=51
4aa
4r
4b
=52
8cc
8ee
8ff
8gg
8aa
8bb
=53
8ccc
8ddd
8eee
8fff
8ggg
8ggg#
=54
4aaa
4bbb
4cccc
=55
4G
4cc
4b
=56
4cc
4r
=57
*>B
4d
2r
=58
4d
8g
8r
4f#
=59
4f#
8cc
8r
4b
=60
4b
4ee
4ee
=61
2dd
4cc
=62
2cc
4b
=63
4a
4g
4gg
=64
2gg
4ff#
=65
4ee
4dd
4cc#
=66
2cc#
4dd
=67
4cc
4b
4a
=68
2g
8a
8f#
=69
4g
4r
4b
=70
4b
8g
8r
4dd
=71
4dd
8b
8r
4ff
=72
4ff[
8.ff]
16gg
8.aa
16gg
=73
4ff
4r
4e
=74
4e
8c
8r
4g
=75
4g
8e
8r
4cc
=76
2cc
4b
=77
4a
4g
4b-
=78
2b-
4a
=79
4g
4f
4a
=80
2c
8d
8B
=81
4c
4r
4ccc
=82
2ccc
4bb
=83
4aa
4gg
4bb-
=84
2bb-
4aa
=85
4gg
4ff
4aa
=86
2cc
8dd
8b
=87
8cc
8dd
8ee-
8ee
8ff
8ff#
=88
4gg
4r
4b
=89
8cc
8ee
8ff
8ff#
8gg
8gg#
=90
4aa
4r
4b
=91
8cc
8ee
8ff
8gg
8aa
8bb
=92
8ccc
8ddd
8eee
8fff
8ggg
8ggg#
=93
4aaa
4bbb
4cccc
=94
4G
4cc
4b
=95
4cc
4r
=96
*>C
*k[b-e-a-]
*c:
4c
2r
=97
4c
8G
8c
4e-
=98
4e-
8c
8e-
4g
=99
4g
8e-
8g
8b
8cc
=100
4g
4r
4aa-
=101
4aa-
4gg
4gg
=102
4gg
4ff
4aa-
=103
4aa-
4gg
4gg
=104
4gg
4ff
4ff
=105
4ff
4ee-
4ee-
=106
4dd
4r
=107
*>C
4c
2r
=108
4c
8G
8c
4e-
=109
4e-
8c
8e-
4g
=110
4g
8e-
8g
8b
8cc
=111
4g
4r
4aa-
=112
4aa-
4gg
4gg
=113
4gg
4ff
4aa-
=114
4aa-
4gg
4gg
=115
4gg
4ff
4ff
=116
4ff
4ee-
4ee-
=117
4dd
4r
=118
*>D
4ee
2r
=119
2.ee[
=120
2ee]
4ee
=121
4ee
4ff
4ff
=122
4ff
4r
4ff#
=123
2.ff#[
=124
2ff#]
4ff#
=125
4ff#
4gg
4gg
=126
4gg
4r
4aa-
=127
4aa-
4gg
4gg
=128
4gg
4ff
4aa-
=129
4aa-
4gg
4gg
=130
4gg
4ff
4aa-
=131
4aa-
4gg
4gg
=132
4gg
4ff#
4ff#
=133
4gg
4ee-
4dd
=134
4cc
4r
=135
*>D
4ee
2r
=136
2.ee[
=137
2ee]
4ee
=138
4ee
4ff
4ff
=139
4ff
4r
4ff#
=140
2.ff#[
=141
2ff#]
4ff#
=142
4ff#
4gg
4gg
=143
4gg
4r
4aa-
=144
4aa-
4gg
4gg
=145
4gg
4ff
4aa-
=146
4aa-
4gg
4gg
=147
4gg
4ff
4aa-
=148
4aa-
4gg
4gg
=149
4gg
4ff#
4ff#
=150
4gg
4ee-
4dd
=151
4cc
4r
==
*>E
*k[]
*C/a:
*-
